X: 19770
T: Jenny's Wedding
R: reel
M: 4/4
K: Dmajor
|:D2 FD ADFD|Adde fded|cAAB =c3d|eaag ed (3Bcd|
D2 FA dfed|cAAB cdeg|fdec d2cA|(3Bcd AG FDD2:|
|:d2fd Adfd|cAAB cdec|d2fd Adfd|(3Bcd eg fddA|
d2fd Adfd|(3Bcd ef g2fg|afge d2cA|(3Bcd AG FDD2:|

